assets/images/skills/javascript.svg

<svg fill="#ffffff" xmlns="http://www.w3.org/2000/svg"  viewBox="0 0 64 64" width="64px" height="64px"><path d="M 12.576172 6 C 8.9635789 6 6 8.9635789 6 12.576172 L 6 51.423828 C 6 55.036421 8.9635789 58 12.576172 58 L 51.423828 58 C 55.036204 58 58 55.037335 58 51.425781 L 58 12.576172 C 58 8.9637963 55.036204 6 51.423828 6 L 12.576172 6 z M 12.576172 8 L 51.423828 8 C 53.945453 8 56 10.054547 56 12.576172 L 56 51.425781 C 56 53.946228 53.945453 56 51.423828 56 L 12.576172 56 C 10.054765 56 8 53.945235 8 51.423828 L 8 12.576172 C 8 10.054765 10.054765 8 12.576172 8 z M 12 12 C 11.448 12 11 12.448 11 13 L 11 15 C 11 15.552 11.448 16 12 16 C 12.552 16 13 15.552 13 15 L 13 13 C 13 12.448 12.552 12 12 12 z M 17 12 C 16.448 12 16 12.448 16 13 L 16 15 C 16 15.552 16.448 16 17 16 C 17.552 16 18 15.552 18 15 L 18 13 C 18 12.448 17.552 12 17 12 z M 22 12 C 21.448 12 21 12.448 21 13 L 21 15 C 21 15.552 21.448 16 22 16 C 22.552 16 23 15.552 23 15 L 23 13 C 23 12.448 22.552 12 22 12 z M 27 12 C 26.448 12 26 12.448 26 13 L 26 15 C 26 15.552 26.448 16 27 16 C 27.552 16 28 15.552 28 15 L 28 13 C 28 12.448 27.552 12 27 12 z M 32 12 C 31.448 12 31 12.448 31 13 L 31 15 C 31 15.552 31.448 16 32 16 C 32.552 16 33 15.552 33 15 L 33 13 C 33 12.448 32.552 12 32 12 z M 37 12 C 36.448 12 36 12.448 36 13 L 36 15 C 36 15.552 36.448 16 37 16 C 37.552 16 38 15.552 38 15 L 38 13 C 38 12.448 37.552 12 37 12 z M 42 12 C 41.448 12 41 12.448 41 13 L 41 15 C 41 15.552 41.448 16 42 16 C 42.552 16 43 15.552 43 15 L 43 13 C 43 12.448 42.552 12 42 12 z M 47 12 C 46.448 12 46 12.448 46 13 L 46 15 C 46 15.552 46.448 16 47 16 C 47.552 16 48 15.552 48 15 L 48 13 C 48 12.448 47.552 12 47 12 z M 52 12 C 51.448 12 51 12.448 51 13 L 51 15 C 51 15.552 51.448 16 52 16 C 52.552 16 53 15.552 53 15 L 53 13 C 53 12.448 52.552 12 52 12 z M 29.332031 30.117188 A 1.0001 1.0001 0 0 0 28.332031 31.117188 L 28.332031 45.599609 C 28.332031 46.583354 28.136686 46.99404 27.996094 47.142578 C 27.855501 47.291116 27.611983 47.392578 27 47.392578 C 25.862422 47.392578 25.136008 46.756569 24.535156 45.705078 A 1.0001 1.0001 0 0 0 23.154297 45.341797 L 19.486328 47.535156 A 1.0001 1.0001 0 0 0 19.097656 48.824219 C 20.313848 51.366541 23.225258 54 27.273438 54 C 29.444454 54 31.401529 53.422848 32.814453 52.109375 C 34.227377 50.795902 35 48.800797 35 46.300781 L 35 31.117188 A 1.0001 1.0001 0 0 0 34 30.117188 L 29.332031 30.117188 z M 45.626953 30.117188 C 41.354022 30.117188 38.333984 33.131267 38.333984 36.923828 C 38.333984 38.904389 38.942484 40.511689 39.996094 41.724609 C 41.049704 42.93753 42.479862 43.756743 44.095703 44.460938 L 45.167969 44.931641 C 46.128502 45.361332 46.788239 45.704822 47.103516 45.984375 C 47.420042 46.265036 47.494141 46.39181 47.494141 46.931641 C 47.494141 47.312893 47.391268 47.527763 47.160156 47.722656 C 46.929045 47.91755 46.498885 48.099609 45.779297 48.099609 C 44.95151 48.099609 44.461231 47.856595 43.974609 47.423828 C 43.487988 46.991061 43.04841 46.328896 42.597656 45.576172 A 1.0001 1.0001 0 0 0 41.175781 45.263672 L 37.796875 47.566406 A 1.0001 1.0001 0 0 0 37.464844 48.835938 C 38.842202 51.620145 41.546086 54 45.880859 54 C 48.09844 54 50.109563 53.415015 51.601562 52.197266 C 53.093564 50.979516 53.999177 49.110242 53.998047 46.876953 C 53.99762 44.855279 53.380573 43.217807 52.25 41.976562 C 51.119378 40.735264 49.563872 39.880766 47.6875 39.058594 L 47.685547 39.058594 L 46.615234 38.589844 L 46.613281 38.587891 C 45.718124 38.191104 45.139947 37.867981 44.878906 37.625 C 44.617516 37.381694 44.568359 37.293769 44.568359 36.835938 C 44.568359 36.268374 44.798618 35.951172 45.625 35.951172 C 46.09891 35.951172 46.368938 36.034562 46.634766 36.214844 C 46.900593 36.395123 47.191654 36.721404 47.513672 37.3125 A 1.0001 1.0001 0 0 0 48.939453 37.669922 L 52.285156 35.472656 A 1.0001 1.0001 0 0 0 52.611328 34.150391 C 51.058008 31.354414 48.596142 30.117187 45.626953 30.117188 z M 30.332031 32.117188 L 33 32.117188 L 33 46.300781 C 33 48.404765 32.405701 49.759004 31.453125 50.644531 C 30.500549 51.530058 29.094421 52 27.273438 52 C 24.513233 52 22.596423 50.334907 21.501953 48.660156 L 23.488281 47.472656 C 24.333123 48.516351 25.445083 49.392578 27 49.392578 C 27.869017 49.392578 28.791608 49.21029 29.447266 48.517578 C 30.102923 47.824866 30.332031 46.838865 30.332031 45.599609 L 30.332031 32.117188 z M 45.626953 32.117188 C 47.756355 32.117188 49.078212 32.849947 50.230469 34.429688 L 48.568359 35.523438 C 48.305885 35.19343 48.090887 34.785803 47.755859 34.558594 C 47.131437 34.135123 46.38609 33.951172 45.625 33.951172 C 43.933382 33.951172 42.568359 35.271501 42.568359 36.835938 C 42.568359 37.697105 42.918969 38.53265 43.517578 39.089844 C 44.116188 39.647038 44.859851 39.998485 45.806641 40.417969 A 1.0001 1.0001 0 0 0 45.808594 40.419922 L 46.882812 40.890625 C 48.657679 41.668222 49.958949 42.432144 50.771484 43.324219 C 51.58402 44.216294 51.998047 45.230549 51.998047 46.878906 C 51.998917 48.599618 51.38514 49.791734 50.337891 50.646484 C 49.290594 51.501188 47.744279 52 45.880859 52 C 42.647837 52 40.880567 50.601247 39.714844 48.679688 L 41.523438 47.447266 C 41.862778 47.955024 42.154553 48.480479 42.646484 48.917969 C 43.420363 49.606202 44.488084 50.099609 45.779297 50.099609 C 46.839709 50.099609 47.76783 49.82656 48.449219 49.251953 C 49.130607 48.677347 49.494141 47.808388 49.494141 46.931641 C 49.494141 45.964471 49.086161 45.070371 48.429688 44.488281 C 47.773212 43.906192 46.969797 43.545478 45.976562 43.101562 A 1.0001 1.0001 0 0 0 45.970703 43.099609 L 44.896484 42.628906 A 1.0001 1.0001 0 0 0 44.894531 42.626953 C 43.410372 41.980147 42.259703 41.277689 41.507812 40.412109 C 40.755924 39.54653 40.333984 38.520268 40.333984 36.923828 C 40.333984 34.12439 42.225884 32.117187 45.626953 32.117188 z"/></svg>

<svg fill="#fff" xmlns="http://www.w3.org/2000/svg" width="64" height="64"><path d="M12.576 6C8.964 6 6 8.964 6 12.576v38.848C6 55.036 8.964 58 12.576 58h38.848C55.036 58 58 55.037 58 51.426v-38.85C58 8.964 55.036 6 51.424 6H12.576zm0 2h38.848A4.584 4.584 0 0 1 56 12.576v38.85A4.583 4.583 0 0 1 51.424 56H12.576A4.584 4.584 0 0 1 8 51.424V12.576A4.584 4.584 0 0 1 12.576 8zM12 12a1 1 0 0 0-1 1v2a1 1 0 0 0 2 0v-2a1 1 0 0 0-1-1zm5 0a1 1 0 0 0-1 1v2a1 1 0 0 0 2 0v-2a1 1 0 0 0-1-1zm5 0a1 1 0 0 0-1 1v2a1 1 0 0 0 2 0v-2a1 1 0 0 0-1-1zm5 0a1 1 0 0 0-1 1v2a1 1 0 0 0 2 0v-2a1 1 0 0 0-1-1zm5 0a1 1 0 0 0-1 1v2a1 1 0 0 0 2 0v-2a1 1 0 0 0-1-1zm5 0a1 1 0 0 0-1 1v2a1 1 0 0 0 2 0v-2a1 1 0 0 0-1-1zm5 0a1 1 0 0 0-1 1v2a1 1 0 0 0 2 0v-2a1 1 0 0 0-1-1zm5 0a1 1 0 0 0-1 1v2a1 1 0 0 0 2 0v-2a1 1 0 0 0-1-1zm5 0a1 1 0 0 0-1 1v2a1 1 0 0 0 2 0v-2a1 1 0 0 0-1-1zM29.332 30.117a1 1 0 0 0-1 1V45.6c0 .983-.195 1.394-.336 1.543-.14.148-.384.25-.996.25-1.138 0-1.864-.636-2.465-1.688a1 1 0 0 0-1.38-.363l-3.669 2.193a1 1 0 0 0-.388 1.29C20.314 51.366 23.225 54 27.273 54c2.171 0 4.129-.577 5.541-1.89C34.227 50.795 35 48.8 35 46.3V31.118a1 1 0 0 0-1-1h-4.668zm16.295 0c-4.273 0-7.293 3.014-7.293 6.807 0 1.98.608 3.588 1.662 4.8 1.054 1.214 2.484 2.033 4.1 2.737l1.072.47c.96.43 1.62.774 1.936 1.053.316.281.39.408.39.948 0 .38-.103.596-.334.79-.231.196-.661.378-1.38.378-.828 0-1.319-.243-1.805-.676-.487-.433-.927-1.095-1.377-1.848a1 1 0 0 0-1.422-.312l-3.38 2.302a1 1 0 0 0-.331 1.27C38.842 51.62 41.546 54 45.88 54c2.217 0 4.229-.585 5.72-1.803 1.493-1.217 2.398-3.087 2.397-5.32 0-2.022-.617-3.66-1.748-4.9-1.13-1.242-2.686-2.096-4.563-2.918h-.001l-1.07-.47-.003-.001c-.895-.397-1.473-.72-1.734-.963-.261-.243-.31-.331-.31-.79 0-.567.23-.884 1.056-.884.474 0 .744.084 1.01.264s.557.506.879 1.097a1 1 0 0 0 1.425.358l3.346-2.197a1 1 0 0 0 .326-1.323c-1.553-2.796-4.015-4.033-6.984-4.033zm-15.295 2H33v14.184c0 2.104-.594 3.458-1.547 4.344-.952.885-2.359 1.355-4.18 1.355-2.76 0-4.677-1.665-5.771-3.34l1.986-1.187c.845 1.043 1.957 1.92 3.512 1.92.869 0 1.792-.183 2.447-.875.656-.693.885-1.68.885-2.918V32.117zm15.295 0c2.13 0 3.451.733 4.603 2.313l-1.662 1.093c-.262-.33-.477-.737-.812-.964-.625-.424-1.37-.608-2.131-.608-1.692 0-3.057 1.32-3.057 2.885 0 .861.351 1.697.95 2.254.598.557 1.342.908 2.289 1.328a1 1 0 0 0 .002.002l1.074.47c1.775.778 3.076 1.542 3.888 2.434.813.892 1.227 1.907 1.227 3.555 0 1.72-.613 2.913-1.66 3.767C49.29 51.501 47.744 52 45.88 52c-3.233 0-5-1.399-6.166-3.32l1.808-1.233c.34.508.632 1.033 1.123 1.471A4.664 4.664 0 0 0 45.78 50.1c1.06 0 1.989-.273 2.67-.848.682-.575 1.045-1.444 1.045-2.32 0-.968-.408-1.862-1.064-2.444-.657-.582-1.46-.943-2.453-1.386a1 1 0 0 0-.006-.002l-1.075-.471a1 1 0 0 0-.001-.002c-1.485-.647-2.635-1.35-3.387-2.215-.752-.865-1.174-1.892-1.174-3.488 0-2.8 1.892-4.807 5.293-4.807z"/></svg>
